resources/icons/cisco/router-firewall.svg

<?xml version="1.0" encoding="UTF-8"?>
<svg xmlns="http://www.w3.org/2000/svg" xmlns:xlink="http://www.w3.org/1999/xlink" width="235pt" height="200pt" viewBox="0 0 235 200" version="1.1">
<defs>
<clipPath id="clip1">
  <path d="M 0 58 L 235 58 L 235 192.71875 L 0 192.71875 Z M 0 58 "/>
</clipPath>
</defs>
<g id="surface1">
<path style=" stroke:none;fill-rule:nonzero;fill:rgb(0.784314%,42.352941%,60.784314%);fill-opacity:1;" d="M 245.648438 73.203125 C 245.648438 99.53125 190.9375 120.882812 123.488281 120.882812 C 56.039062 120.882812 1.320312 99.53125 1.320312 73.203125 L 1.320312 143.042969 C 1.320312 169.371094 56.039062 190.730469 123.488281 190.730469 C 190.9375 190.730469 245.648438 169.371094 245.648438 143.042969 L 245.648438 73.203125 "/>
<g clip-path="url(#clip1)" clip-rule="nonzero">
<path style="fill:none;stroke-width:4;stroke-linecap:butt;stroke-linejoin:miter;stroke:rgb(100%,100%,100%);stroke-opacity:1;stroke-miterlimit:4;" d="M 369.879808 188.272236 C 369.879808 148.780048 287.5 116.752704 185.939802 116.752704 C 84.379603 116.752704 1.988032 148.780048 1.988032 188.272236 L 1.988032 83.51247 C 1.988032 44.020282 84.379603 11.98122 185.939802 11.98122 C 287.5 11.98122 369.879808 44.020282 369.879808 83.51247 Z M 369.879808 188.272236 " transform="matrix(0.66413,0,0,-0.666667,0,198.717949)"/>
</g>
<path style=" stroke:none;fill-rule:nonzero;fill:rgb(0.784314%,42.352941%,60.784314%);fill-opacity:1;" d="M 123.488281 120.882812 C 190.9375 120.882812 245.648438 99.53125 245.648438 73.203125 C 245.648438 46.871094 190.9375 25.515625 123.488281 25.515625 C 56.039062 25.515625 1.320312 46.871094 1.320312 73.203125 C 1.320312 99.53125 56.039062 120.882812 123.488281 120.882812 "/>
<path style="fill:none;stroke-width:4;stroke-linecap:butt;stroke-linejoin:miter;stroke:rgb(100%,100%,100%);stroke-opacity:1;stroke-miterlimit:4;" d="M 185.939802 116.752704 C 287.5 116.752704 369.879808 148.780048 369.879808 188.272236 C 369.879808 227.770282 287.5 259.803486 185.939802 259.803486 C 84.379603 259.803486 1.988032 227.770282 1.988032 188.272236 C 1.988032 148.780048 84.379603 116.752704 185.939802 116.752704 Z M 185.939802 116.752704 " transform="matrix(0.66413,0,0,-0.666667,0,198.717949)"/>
<path style=" stroke:none;fill-rule:nonzero;fill:rgb(0.784314%,42.352941%,60.784314%);fill-opacity:1;" d="M 123.460938 89.398438 C 190.652344 89.398438 245.132812 68.125 245.132812 41.898438 C 245.132812 15.679688 190.652344 -5.601562 123.460938 -5.601562 C 56.273438 -5.601562 1.8125 15.679688 1.8125 41.898438 C 1.8125 68.125 56.273438 89.398438 123.460938 89.398438 "/>
<path style="fill:none;stroke-width:4;stroke-linecap:butt;stroke-linejoin:miter;stroke:rgb(100%,100%,100%);stroke-opacity:1;stroke-miterlimit:4;" d="M 185.898629 163.979267 C 287.070632 163.979267 369.103417 195.889423 369.103417 235.229267 C 369.103417 274.557392 287.070632 306.479267 185.898629 306.479267 C 84.732508 306.479267 2.729133 274.557392 2.729133 235.229267 C 2.729133 195.889423 84.732508 163.979267 185.898629 163.979267 Z M 185.898629 163.979267 " transform="matrix(0.66413,0,0,-0.666667,0,198.717949)"/>
<path style=" stroke:none;fill-rule:nonzero;fill:rgb(0.784314%,42.352941%,60.784314%);fill-opacity:1;" d="M 245.132812 41.898438 C 245.132812 68.125 190.652344 89.398438 123.460938 89.398438 C 56.273438 89.398438 1.8125 68.125 1.8125 41.898438 L 1.8125 75.542969 C 1.8125 101.796875 56.273438 123.042969 123.460938 123.042969 C 190.652344 123.042969 245.132812 101.796875 245.132812 75.542969 L 245.132812 41.898438 "/>
<path style="fill:none;stroke-width:4;stroke-linecap:butt;stroke-linejoin:miter;stroke:rgb(100%,100%,100%);stroke-opacity:1;stroke-miterlimit:4;" d="M 369.103417 235.229267 C 369.103417 195.889423 287.070632 163.979267 185.898629 163.979267 C 84.732508 163.979267 2.729133 195.889423 2.729133 235.229267 L 2.729133 184.76247 C 2.729133 145.381611 84.732508 113.51247 185.898629 113.51247 C 287.070632 113.51247 369.103417 145.381611 369.103417 184.76247 Z M 369.103417 235.229267 " transform="matrix(0.66413,0,0,-0.666667,0,198.717949)"/>
<path style=" stroke:none;fill-rule:nonzero;fill:rgb(100%,100%,100%);fill-opacity:1;" d="M 95.601562 21.226562 L 105.691406 36.40625 L 67.527344 45.257812 L 75.855469 38.304688 L 16.941406 28.179688 L 31.699219 17.058594 L 88.59375 26.71875 L 95.601562 21.226562 M 149.25 58.042969 L 142.375 42.398438 L 176.773438 35.492188 L 170.808594 40.859375 L 228.140625 50.703125 L 214.386719 61.742188 L 157.390625 50.992188 L 149.25 58.042969 M 130.441406 12.945312 L 168.960938 2.34375 L 169.433594 18.929688 L 159.804688 17.085938 L 140.996094 32.730469 L 123.042969 30.101562 L 142.449219 14.789062 L 130.441406 12.945312 M 113.9375 72.34375 L 77.230469 79.242188 L 75.855469 62.210938 L 86.417969 64.503906 L 106.625 47.183594 L 124.472656 50.230469 L 102.941406 69.085938 L 113.9375 72.34375 "/>
<path style="fill:none;stroke-width:3;stroke-linecap:butt;stroke-linejoin:miter;stroke:rgb(100%,100%,100%);stroke-opacity:1;stroke-miterlimit:4;" d="M 144.22054 231.549579 L 193.709595 228.309345 M 39.772402 238.158954 L 90.661313 234.877704 M 18.398118 260.928486 L 59.411569 257.377704 M 63.911109 259.129657 L 13.398629 217.182392 M 114.341244 253.041767 L 43.395561 193.428486 M 169.647351 250.580829 L 82.620959 179.881611 M 64.611037 211.750751 L 115.782273 208.469501 M 286.211896 206.319111 L 337.10669 203.078876 M 183.198905 212.922626 L 234.058408 209.682392 M 205.161365 235.229267 L 128.398629 169.680439 M 259.920468 230.541767 L 183.398885 165.930439 M 310.391776 227.342548 L 242.145816 167.178486 M 367.338891 233.623798 L 319.837868 187.381611 M 103.012991 193.270282 L 154.178345 189.989032 M 207.537592 186.549579 L 258.673537 183.268329 M 108.400675 298.428486 L 60.782017 257.143329 M 175.899652 305.928486 L 113.711896 250.891376 M 309.568331 272.998798 L 344.647095 268.428486 M 233.399652 303.432392 L 148.443637 232.610126 M 280.388963 297.221454 L 198.479695 229.211689 M 319.649652 282.180439 L 254.303396 225.854267 M 353.399141 262.182392 L 307.227394 222.44997 M 126.369425 259.908954 L 177.499489 256.627704 M 230.899908 253.229267 L 282.029971 249.948017 M 334.412848 246.590595 L 364.650931 244.680439 " transform="matrix(0.66413,0,0,-0.666667,0,198.717949)"/>
</g>
</svg>

<svg xmlns="http://www.w3.org/2000/svg" viewBox="0 0 46.25 38.75" height="38.75" width="46.25"><defs><clipPath id="a"><path d="M0 9v299h370V9H0z"/></clipPath></defs><g clip-path="url(#a)" transform="matrix(.13 0 0 -.13 0 38.75)"><path d="M369.879 188.27c0-39.489-82.379-71.52-183.938-71.52-101.562 0-183.953 32.031-183.953 71.52V83.512c0-39.492 82.39-71.531 183.953-71.531 101.559 0 183.938 32.039 183.938 71.53V188.27" fill="#026c9b"/><path d="M369.879 188.27c0-39.489-82.379-71.52-183.938-71.52-101.562 0-183.953 32.031-183.953 71.52V83.512c0-39.492 82.39-71.531 183.953-71.531 101.559 0 183.938 32.039 183.938 71.53V188.27z" fill="none" stroke="#fff" stroke-width="4"/><path d="M185.941 116.75c101.559 0 183.938 32.031 183.938 71.52 0 39.5-82.379 71.531-183.938 71.531-101.562 0-183.953-32.031-183.953-71.531 0-39.489 82.39-71.52 183.953-71.52" fill="#026c9b"/><path d="M185.941 116.75c101.559 0 183.938 32.031 183.938 71.52 0 39.5-82.379 71.531-183.938 71.531-101.562 0-183.953-32.031-183.953-71.531 0-39.489 82.39-71.52 183.953-71.52z" fill="none" stroke="#fff" stroke-width="4"/><path d="M185.898 163.98c101.172 0 183.204 31.911 183.204 71.25 0 39.329-82.032 71.25-183.204 71.25C84.73 306.48 2.73 274.559 2.73 235.23c0-39.339 82-71.25 183.168-71.25" fill="#026c9b"/><path d="M185.898 163.98c101.172 0 183.204 31.911 183.204 71.25 0 39.329-82.032 71.25-183.204 71.25C84.73 306.48 2.73 274.559 2.73 235.23c0-39.339 82-71.25 183.168-71.25z" fill="none" stroke="#fff" stroke-width="4"/><path d="M369.102 235.23c0-39.339-82.032-71.25-183.204-71.25C84.73 163.98 2.73 195.891 2.73 235.23v-50.468c0-39.383 82-71.25 183.168-71.25 101.172 0 183.204 31.867 183.204 71.25v50.468" fill="#026c9b"/><path d="M369.102 235.23c0-39.339-82.032-71.25-183.204-71.25C84.73 163.98 2.73 195.891 2.73 235.23v-50.468c0-39.383 82-71.25 183.168-71.25 101.172 0 183.204 31.867 183.204 71.25v50.468z" fill="none" stroke="#fff" stroke-width="4"/><path d="M143.949 266.238l15.192-22.769-57.461-13.278 12.539 10.43-88.707 15.188 22.219 16.679L133.398 258l10.551 8.238M224.73 211.012l-10.351 23.468 51.793 10.36-8.981-8.051 86.329-14.769-20.711-16.559-85.821 16.129-12.258-10.578M196.41 278.66l58 15.899.711-24.879-14.5 2.769-28.32-23.469-27.031 3.942 29.218 22.969-18.078 2.769M171.559 189.559l-55.27-10.348-2.07 25.551 15.902-3.442 30.43 25.981 26.871-4.571L155 194.449l16.559-4.89" fill="#fff"/><path d="M144.219 231.551l49.492-3.242M39.77 238.16l50.89-3.281M18.398 260.93l41.012-3.551M63.91 259.129L13.398 217.18M114.34 253.039L43.398 193.43M169.648 250.578l-87.027-70.699M64.61 211.75l51.171-3.281M286.211 206.32l50.898-3.242M183.199 212.922l50.86-3.242M205.16 235.23l-76.762-65.55M259.922 230.539l-76.524-64.609M310.391 227.34l-68.243-60.16M367.34 233.621l-47.5-46.242M103.012 193.27l51.168-3.282M207.539 186.551l51.133-3.281M108.398 298.43l-47.617-41.289M175.898 305.93l-62.187-55.039M309.57 273l35.078-4.57M233.398 303.43l-84.957-70.821M280.391 297.219l-81.911-68.008M319.648 282.18l-65.347-56.328M353.398 262.18l-46.168-39.731M126.371 259.91l51.129-3.281M230.898 253.23l51.133-3.281M334.41 246.59l30.238-1.91" fill="none" stroke="#fff" stroke-width="3"/></g></svg>
